assets/svg/icon_notifications_updates.svg

<svg width="24" height="24" viewBox="0 0 24 24" fill="none" xmlns="http://www.w3.org/2000/svg">
<path d="M16.5717 22.0008C15.3201 22.0008 14.2534 21.5595 13.3715 20.6771C12.4897 19.7946 12.0485 18.7279 12.0479 17.4769C12.0472 16.226 12.4885 15.1592 13.3715 14.2768C14.2546 13.3943 15.3213 12.9531 16.5717 12.9531C17.822 12.9531 18.8891 13.3943 19.7727 14.2768C20.6564 15.1592 21.0973 16.226 21.0955 17.4769C21.0937 18.7279 20.6524 19.7949 19.7718 20.678C18.8912 21.561 17.8245 22.002 16.5717 22.0008Z" stroke="#0166FF" stroke-width="1.08572"/>
<path d="M15.0587 17.4695L16.1834 18.5941V15.8018C16.1834 15.6984 16.2222 15.6079 16.2997 15.5304C16.3773 15.4528 16.4678 15.414 16.5712 15.414C16.6746 15.414 16.7651 15.4528 16.8427 15.5304C16.9202 15.6079 16.959 15.6984 16.959 15.8018V18.5941L18.0837 17.4695C18.1613 17.3919 18.2517 17.3531 18.3552 17.3531C18.4586 17.3531 18.5491 17.3919 18.6266 17.4695C18.7042 17.547 18.743 17.6375 18.743 17.7409C18.743 17.8443 18.7042 17.9348 18.6266 18.0124L17.1141 19.5249C17.0366 19.6035 16.9526 19.6586 16.8621 19.6901C16.7716 19.7216 16.6746 19.7377 16.5712 19.7382C16.4678 19.7387 16.3708 19.7227 16.2803 19.6901C16.1898 19.6575 16.1058 19.6025 16.0283 19.5249L14.5158 18.0124C14.4382 17.9348 14.3994 17.8443 14.3994 17.7409C14.3994 17.6375 14.4382 17.547 14.5158 17.4695C14.5933 17.3919 14.6838 17.3531 14.7872 17.3531C14.8907 17.3531 14.9811 17.3919 15.0587 17.4695Z" fill="#0166FF"/>
<path d="M9.33287 18.381L3.9043 15.2143V7.07143M3.9043 7.07143L11.1424 11.1429L18.3805 7.07143M3.9043 7.07143L11.1424 3L18.3805 7.07143M18.3805 7.07143V10.2381" stroke="#0166FF" stroke-width="1.08572" stroke-linecap="round" stroke-linejoin="round"/>
</svg>

<svg xmlns="http://www.w3.org/2000/svg" width="24" height="24" fill="none"><path stroke="#0166FF" stroke-width="1.086" d="M16.572 22q-1.878 0-3.2-1.323-1.323-1.324-1.324-3.2 0-1.877 1.323-3.2 1.326-1.324 3.2-1.324 1.876 0 3.202 1.324 1.325 1.323 1.323 3.2-.003 1.876-1.324 3.201-1.32 1.324-3.2 1.323Z"/><path fill="#0166FF" d="m15.059 17.47 1.124 1.124v-2.792q0-.155.117-.272a.37.37 0 0 1 .543 0 .37.37 0 0 1 .116.272v2.792l1.125-1.125a.37.37 0 0 1 .543 0 .37.37 0 0 1 0 .543l-1.513 1.513a.66.66 0 0 1-.252.165.9.9 0 0 1-.582 0 .7.7 0 0 1-.252-.165l-1.512-1.513a.37.37 0 0 1 0-.543.37.37 0 0 1 .543 0"/><path stroke="#0166FF" stroke-linecap="round" stroke-linejoin="round" stroke-width="1.086" d="m9.333 18.381-5.429-3.167V7.071m0 0 7.238 4.072 7.239-4.072m-14.477 0L11.142 3l7.239 4.071m0 0v3.167"/></svg>
